images/rock 1.svg

<svg fill="none" height="178" viewBox="0 0 178 178" width="178" xmlns="http://www.w3.org/2000/svg" xmlns:xlink="http://www.w3.org/1999/xlink"><clipPath id="a"><path d="m0 0h178v178h-178z"/></clipPath><g clip-path="url(#a)"><path d="m156.361 131.564-10.798-43.1962c-.29-1.1604-1.333-1.975-2.53-1.975h-8.194v-15.4324c0-1.4404-1.167-2.6075-2.607-2.6075-1.441 0-2.608 1.1671-2.608 2.6075v16.4347l-19.989 10.0747c-.865.4363-1.417 1.3169-1.433 2.2865l-.173 10.7997c-.012.708.265 1.39.766 1.889l10.841 10.799c.285.284.632.498 1.015.626l28.355 9.464-7.05 7.05-9.568-.027c-.003 0-.005 0-.007 0-1.437 0-2.603 1.163-2.608 2.6-.004 1.441 1.16 2.611 2.6 2.615l8.053.023v6.556l-16.387 8.206.044-6.547c.005-.698-.271-1.369-.765-1.862l-10.839-10.829c-.796-.794-2.01-.99-3.013-.486l-14.4975 7.28c-1.287.646-1.8064 2.213-1.1601 3.5.6459 1.286 2.2132 1.806 3.4998 1.16l12.8158-6.435 8.736 8.728-.054 8.111-19.5853 9.808h-29.1436l.0761-6.573 17.0004-8.539c1.2866-.646 1.806-2.214 1.1597-3.5-.6463-1.288-2.2138-1.806-3.5002-1.16l-17.0771 8.577-30.5367-19.991.3973-8.259 20.4283-20.134h19.1311l9.9979 10.032c1.0165 1.02 2.6676 1.022 3.6872.006 1.0204-1.016 1.0228-2.667.0066-3.687l-10.762-10.799c-.4891-.491-1.1538-.767-1.8471-.767h-18.6757v-18.5694l10.3511-31.1962c.0949-.2861.1394-.5869.1318-.8883l-.5069-19.7242h8.7404c1.4403 0 2.6074-1.1671 2.6074-2.6074 0-1.4404-1.1671-2.6074-2.6074-2.6074h-10.785l-16.8786-8.6699 21.7528-17.40535 14.6237 19.45165c.4927.6554 1.2648 1.0406 2.0842 1.0406h15.2796l-6.326 6.3502c-1.0162 1.0204-1.0131 2.6711.0073 3.6873 1.23 1.0158 2.4597 1.0134 3.6877-.0073l8.913-8.9473 15.299 15.2989h-15.302c-.693 0-1.358.2761-1.847.7673l-10.7577 10.7989c-.4867.4884-.7603 1.1504-.7603 1.8401v10.7993c0 1.4403 1.1671 2.6074 2.6074 2.6074 1.4406 0 2.6076-1.1671 2.6076-2.6074v-9.7222l9.233-9.2685h17.906v11.1837c0 1.4403 1.167 2.6074 2.607 2.6074 1.441 0 2.608-1.1671 2.608-2.6074v-13.7574c0-.0111.001-.0223.001-.0337 0-.7266-.297-1.383-.776-1.8558l-21.582-21.5821c-.002-.0025-.004-.0049-.007-.0073-.516-.5142-1.193-.7666-1.869-.7593h-20.2272l-15.4565-20.55898c-.4241-.563555-1.0579-.931722-1.7577-1.0200265-.6995-.0900428-1.4052.1102065-1.9556.5506865l-26.9944 21.59912c-.4582.3654-.7905.8963-.9167 1.4689l-13.8962 62.3103c-.3132 1.4056.5719 2.7993 1.9775 3.1125 1.311.2813 2.3484-.3775 3.1125-1.9774l13.1616-59.0173 16.644 8.5495.5239 20.3973-10.3403 31.1639c-.088.2649-.1328.5423-.1328.8211v19.7125l-26.6339 8.772 4.3061-19.3057c.3132-1.4055-.5719-2.799-1.9775-3.1125-1.4052-.3119-2.7993.5718-3.1126 1.9774l-5.3055 23.7868c-.1913.861.0806 1.795.7074 2.418l10.0487 9.981-.4624 9.608c-.0445.923.4029 1.801 1.1761 2.307l31.846 20.849-.1085 9.369c.1345 1.605 1.0037 2.484 2.6071 2.638h32.3976c.4053 0 .8053-.095 1.1673-.276l43.196-21.631c.883-.442 1.44-1.345 1.44-2.332v-9.687l10.035-10.034c.71-.67.88-1.648.686-2.476zm-127.3379-9.02 18.1702-5.984-12.1446 11.969zm84.2369-13.011.131-8.116 19.462-9.8094h8.145l9.152 36.6114-27.268-9.101z" fill="#374a5c"/><path d="m89.0789 75.5944c-1.4403 0-2.6074 1.1671-2.6074 2.6074v9.7188l-10.0351 10.0344c-1.0187 1.0183-1.0187 2.669-.0004 3.687 1.229 1.019 2.4583 1.019 3.6873.001l10.7989-10.799c.4891-.4891.7638-1.1521.7638-1.844v-8.1907h19.123c1.44 0 2.607-1.1671 2.607-2.6075 0-1.4403-1.167-2.6074-2.607-2.6074z" fill="#fece03"/></g></svg>

<svg width="178" height="178" viewBox="0 0 178 178" fill="none" xmlns="http://www.w3.org/2000/svg">
<g clip-path="url(#clip0)">
<path d="M156.361 131.564L145.563 88.3678C145.273 87.2074 144.23 86.3928 143.033 86.3928H134.839V70.9604C134.839 69.52 133.672 68.3529 132.232 68.3529C130.791 68.3529 129.624 69.52 129.624 70.9604V87.3951L109.635 97.4698C108.77 97.9061 108.218 98.7867 108.202 99.7563L108.029 110.556C108.017 111.264 108.294 111.946 108.795 112.445L119.636 123.244C119.921 123.528 120.268 123.742 120.651 123.87L149.006 133.334L141.956 140.384L132.388 140.357C132.385 140.357 132.383 140.357 132.381 140.357C130.944 140.357 129.778 141.52 129.773 142.957C129.769 144.398 130.933 145.568 132.373 145.572L140.426 145.595V152.151L124.039 160.357L124.083 153.81C124.088 153.112 123.812 152.441 123.318 151.948L112.479 141.119C111.683 140.325 110.469 140.129 109.466 140.633L94.9685 147.913C93.6815 148.559 93.1621 150.126 93.8084 151.413C94.4543 152.699 96.0216 153.219 97.3082 152.573L110.124 146.138L118.86 154.866L118.806 162.977L99.2207 172.785H70.0771L70.1532 166.212L87.1536 157.673C88.4402 157.027 88.9596 155.459 88.3133 154.173C87.667 152.885 86.0995 152.367 84.8131 153.013L67.736 161.59L37.1993 141.599L37.5966 133.34L58.0249 113.206H77.156L87.1539 123.238C88.1704 124.258 89.8215 124.26 90.8411 123.244C91.8615 122.228 91.8639 120.577 90.8477 119.557L80.0857 108.758C79.5966 108.267 78.9319 107.991 78.2386 107.991H59.5629V89.4216L69.914 58.2254C70.0089 57.9393 70.0534 57.6385 70.0458 57.3371L69.5389 37.6129H78.2793C79.7196 37.6129 80.8867 36.4458 80.8867 35.0055C80.8867 33.5651 79.7196 32.3981 78.2793 32.3981H67.4943L50.6157 23.7282L72.3685 6.32285L86.9922 25.7745C87.4849 26.4299 88.257 26.8151 89.0764 26.8151H104.356L98.03 33.1653C97.0138 34.1857 97.0169 35.8364 98.0373 36.8526C99.2673 37.8684 100.497 37.866 101.725 36.8453L110.638 27.898L125.937 43.1969H110.635C109.942 43.1969 109.277 43.473 108.788 43.9642L98.0303 54.7631C97.5436 55.2515 97.27 55.9135 97.27 56.6032V67.4025C97.27 68.8428 98.4371 70.0099 99.8774 70.0099C101.318 70.0099 102.485 68.8428 102.485 67.4025V57.6803L111.718 48.4118H129.624V59.5955C129.624 61.0358 130.791 62.2029 132.231 62.2029C133.672 62.2029 134.839 61.0358 134.839 59.5955V45.8381C134.839 45.827 134.84 45.8158 134.84 45.8044C134.84 45.0778 134.543 44.4214 134.064 43.9486L112.482 22.3665C112.48 22.364 112.478 22.3616 112.475 22.3592C111.959 21.845 111.282 21.5926 110.606 21.5999H90.3788L74.9223 1.04092C74.4982 0.477365 73.8644 0.109198 73.1646 0.0208935C72.4651 -0.0691493 71.7594 0.1311 71.209 0.57158L44.2146 22.1707C43.7564 22.5361 43.4241 23.067 43.2979 23.6396L29.4017 85.9499C29.0885 87.3555 29.9736 88.7492 31.3792 89.0624C32.6902 89.3437 33.7276 88.6849 34.4917 87.085L47.6533 28.0677L64.2973 36.6172L64.8212 57.0145L54.4809 88.1784C54.3929 88.4433 54.3481 88.7207 54.3481 88.9995V108.712L27.7142 117.484L32.0203 98.1783C32.3335 96.7728 31.4484 95.3793 30.0428 95.0658C28.6376 94.7539 27.2435 95.6376 26.9302 97.0432L21.6247 120.83C21.4334 121.691 21.7053 122.625 22.3321 123.248L32.3808 133.229L31.9184 142.837C31.8739 143.76 32.3213 144.638 33.0945 145.144L64.9405 165.993L64.832 175.362C64.9665 176.967 65.8357 177.846 67.4391 178H99.8367C100.242 178 100.642 177.905 101.004 177.724L144.2 156.093C145.083 155.651 145.64 154.748 145.64 153.761V144.074L155.675 134.04C156.385 133.37 156.555 132.392 156.361 131.564ZM29.0231 122.544L47.1933 116.56L35.0487 128.529L29.0231 122.544ZM113.26 109.533L113.391 101.417L132.853 91.6076H140.998L150.15 128.219L122.882 119.118L113.26 109.533Z" fill="#374A5C"/>
<path d="M89.0789 75.5944C87.6386 75.5944 86.4715 76.7615 86.4715 78.2018V87.9206L76.4364 97.955C75.4177 98.9733 75.4177 100.624 76.436 101.642C77.665 102.661 78.8943 102.661 80.1233 101.643L90.9222 90.844C91.4113 90.3549 91.686 89.6919 91.686 89V80.8093H110.809C112.249 80.8093 113.416 79.6422 113.416 78.2018C113.416 76.7615 112.249 75.5944 110.809 75.5944H89.0789Z" fill="#FECE03"/>
</g>
<defs>
<clipPath id="clip0">
<rect width="178" height="178" fill="white"/>
</clipPath>
</defs>
</svg>
